X:1
T:Title
%%score [ ( 1 2 ) ( 3 4 ) ] { ( 5 6 ) | 7 }
L:1/8
Q:1/4=120
M:4/4
K:Eb
V:1 treble nm="Midi_74"
V:2 treble 
V:3 bass nm="Midi_74"
V:4 bass 
V:5 treble nm="Org."
V:6 treble 
V:7 bass 
V:1
 B8 | e4 =A4 | B8 || (B6 A2) | (A2 G2) c4 | (c2 B2) (B2 =A2) | B8 || G8 | c4 F4 | G8 || (e6 _d2) | %11
 (_d2 c2) f4 |"^William Henry Havergal\n(1793-1870)" (f2 e2) (e2 d2) | e8 |] %14
V:2
 (G6 F2) | E4 E4 | D8 || F8 | E4 E4 | F4 E4 | D8 || (E6 D2) | C4 C4 | D8 || E8 | E4 A4 | G4 A4 | %13
 G8 |] %14
V:3
 B,8 | C4 C4 | B,8 || B,8 | B,4 C4 | D4 C4 | B,8 || (E6 G,2) | A,4 C4 | =B,8 || _B,8 | A,4 C4 | %12
 B,4 [B,F]4 | [B,E]8 |] %14
V:4
 (E,6 D,2) | C,4 F,4 | G,8 || D,8 | E,4 C,4 | F,4 F,4 | B,,8 || (C,6 B,,2) | A,,4 A,4 | G,8 || %10
 G,8 | A,4 F,4 | (B,4 B,4) | E,8 |] %14
V:5
 [EGB]8 | e4 =A4 | B8 || B6 A2 | A2 G2 c4 | c2 B2 B2 =A2 | B8 || G8 | c4 F4 | G8 || e6 _d2 | %11
 _d2 c2 f4 | f2 e2 e2 d2 | e8 |] %14
V:6
 x8 | [EG]4 [CE]4 | [B,D]8 || [B,F]8 | [B,E]4 [CE]4 | [DF]4 [CE]4 | [B,D]8 || E6 D2 | [CE]4 C4 | %9
 [=B,D]8 || _B8 | [EA]4 [FA]4 | [GB]4 [FA]4 | [EG]8 |] %14
V:7
 E,6 D,2 | C,4 F,4 | G,8 || D,8 | E,4 C,4 | F,4 F,4 | B,,8 || C,6 B,,2 | A,,4 A,4 | G,8 || G,8 | %11
 A,4 F,4 | B,4 B,4 | E,8 |] %14

